**kern	**kern	**dynam
*part1	*part1	*part1
*staff2	*staff1	*
*I"Piano	*	*
*clefF4	*clefG2	*
*k[]	*k[]	*
=1	=1	=1
2.ryy	(8FFL<	<
.	8F<	.
.	8A	.
.	8c#X	.
.	8g	.
.	8eJ)	.
*	*^	*
2.F	2.A 2.a	(2e	[
.	.	4d)	.
=	=	=	=
2.f	2.a 2.aa	(2ee	pp
.	.	4dd)	.
*	*v	*v	*
2r	2r	.
4r	4r	.
=	=	=
1.r	1.r	.
=	=	=
4EE' 4E	4e'	p
4r	4r	.
4r	4r	.
4FF' 4F	4f'	.
4r	4r	.
4r	4r	.
=	=	=
4GG' 4G	4g'	.
4r	4r	.
4r	4r	.
4CC' 4C	4c'	.
4r	4r	.
4r	4r	.
=	=	=
4DD' 4D	4d'	.
4r	4r	.
4r	4r	.
2r	2r	.
4EE' 4E	4e'	.
=	=	=
2.ryy	(8AAL<	.
.	8E<	.
.	8A<	.
.	8c	.
.	8e	.
.	8ccJ)	.
2r	(2.a 2.cc 2.ff	.
4r	.	.
=	=	=
*-	*-	*-
!!!system-decoration: {(s1,s2)}
!!!RDF**kern: < = below
